X:1
T:C minor William Billings, 1779
T:Isaac Watts, 1717 (Psalm 13, Part 1)        88. 88. (L. M.) 
T:Dudley
T:Transcribed from Music in Miniature, 1779.
%%score [ 1 2 3 4 ]
L:1/8
Q:1/4=150
M:3/2
K:Eb
V:1 treble nm="Treble" snm="Tr."
V:2 treble nm="Counter" snm="C."
V:3 treble-8 nm="Tenor" snm="T."
V:4 bass nm="Bass" snm="B."
V:1
"^2. Shall  I              for    ev      –       er      be      for – got,     As     one           whom  thou      re–gar–dest  not;  Still  shall     my""^1. How  long,      O      Lord,         shall  I      complain,    Like  one           that      seeks     his   God in vain?  Canst  thou  thy" c4 | %1
 (e3 d c4) =B4 | (c4 B4) B4 | A8 G4 | G8 c4 | (B4 c4) (d2 c2) | (B4 c4) e4 | d8 c4 | B8 B4 | %9
 (G4 c4) B4 | %10
"^1. face             for     ev    –   er     hide,   And  I                      still   pray,            and    be          de–nied?""^2. soul           thine ab–sence mourn,  And still                 des– pair              of        thy        re – turn?" (e4 d4) d4 | %11
 (c4 B4) B4 | B8 c4 | (e3 d c4) =B4 | (c4 g4) g4 | (f4 e4) d4 | c8 |] %17
V:2
"^3. How long      shall   my          poor troubled breast     Be   with these anxious thoughts oppressed?  And Sa     –     tan,""^4. Hear, Lord,    and     grant     me    quick     re – lief,    Be –fore             my     death conclude my grief:   If      thou      with–" G4 | %1
 G8 G4 | (E3 F G4) G4 | (F6 E2) D4 | E8 G4 | (E3 F G4) A4 | (G4 A4) B4 | B8 G4 | G8 G4 | G8 G4 | %10
"^3. my               ma –  li   –    cious  foe,    Re – joice               to         see             me      sunk       so    low?""^4. –hold         thy    heav'nly     light,     I       sleep              in         e       –       ver  – las   –   ting night." (G3 A B4) B4 | %11
 (A4 G4) F4 | G8 G4 | (E3 F G4) G4 | (E3 F G4) B4 | A8 G4 | G8 |] %17
V:3
"^5. How will       the    powers     of     darkness boast,    If     but              one     pray   –  ing  soul be lost!   But    I              have""^6. What–e'er     my    fears          or     foes        suggest,   Thou art           my       hope,     my   joy,  my rest;  My    heart    shall" c4 | %1
 (c3 d e4) d4 | (c4 d4) e4 | (d4 c4) =B4 | c8 e4 | (g3 f e4) (d2 c2) | (d3 e f4) g4 | f8 e4 | %8
 d8 d4 | (c3 d e4) d4 | %10
"^5. trus      –    ted    in          thy  grace,   And  shall             a   –   gain             be – hold        thy    face.""^6. feel              thy   love,     and raise     My   cheer    –     ful     voice             to     songs      of    praise." (e4 f4) g4 | %11
 (f4 e4) d4 | e8 e4 | (g3 f e4) d4 | (c4 d4) e4 | (d4 c4) =B4 | c8 |] %17
V:4
 C,4 | C,8 G,4 | (A,4 G,4) E,4 | F,8 G,4 | C,8 C,4 | E,8 F,4 | (G,4 F,4) E,4 | B,8 C4 | G,8 G,4 | %9
 (E,3 D, C,4) G,4 | %10
"^Originally published without words; These words chosen by\nHans Nathan, The Complete Works of William Billings,  Volume II (1977)." (C4 B,4) G,4 | %11
 (A,4 B,4) B,,4 | E,8 E,4 | (C,3 D, E,4) G,4 | (A,4 G,4) E,4 | F,8 G,4 | C,8 |] %17

